style/elvis/src/icons/svg/src/phone-mobile-notification.svg

<svg width="24" height="25" viewBox="0 0 24 25" fill="none" xmlns="http://www.w3.org/2000/svg">
<path d="M5.733 24.0276C3.813 24.0276 2.251 22.4648 2.25 20.5436V4.98871C2.25 3.0655 3.812 1.50171 5.733 1.50171H9C9.414 1.50171 9.75 1.8381 9.75 2.25257C9.75 2.66705 9.414 3.00343 9 3.00343H5.733C4.64 3.00343 3.75 3.89446 3.75 4.98871V18.0207H14.25V15.0172C14.25 14.6028 14.586 14.2664 15 14.2664C15.414 14.2664 15.75 14.6028 15.75 15.0172V20.5416C15.75 22.4638 14.188 24.0276 12.268 24.0276H5.733ZM3.75 20.5416C3.75 21.6358 4.64 22.5258 5.732 22.5258H12.267C13.36 22.5258 14.25 21.6358 14.25 20.5416V19.5224H3.75V20.5416Z" fill="black"/>
<path d="M10.5 9.76292C10.086 9.76292 9.75 9.42653 9.75 9.01205C9.75 8.59758 10.086 8.26119 10.5 8.26119C10.914 8.26119 11.25 7.92481 11.25 7.51033V4.50688C11.25 2.02303 13.269 0.00170898 15.75 0.00170898C18.231 0.00170898 20.25 2.02303 20.25 4.50688V7.51033C20.25 7.92481 20.586 8.26119 21 8.26119C21.414 8.26119 21.75 8.59758 21.75 9.01205C21.75 9.42653 21.414 9.76292 21 9.76292H10.5ZM18.878 8.26119C18.793 8.02292 18.75 7.76963 18.75 7.51033V4.50688C18.75 2.85098 17.404 1.50343 15.75 1.50343C14.096 1.50343 12.75 2.85098 12.75 4.50688V7.51033C12.75 7.76963 12.707 8.02292 12.622 8.26119H18.878Z" fill="black"/>
<path d="M15.75 12.7663C15.13 12.7663 14.625 12.2608 14.625 11.6401C14.625 11.0414 15.094 10.5488 15.692 10.5178C15.691 10.5178 15.695 10.5178 15.696 10.5178C15.706 10.5168 15.712 10.5158 15.722 10.5148C15.722 10.5148 15.712 10.5148 15.703 10.5158C15.719 10.5138 15.736 10.5128 15.75 10.5128C16.37 10.5128 16.875 11.0183 16.875 11.639C16.875 12.2598 16.37 12.7663 15.75 12.7663Z" fill="black"/>
</svg>

<svg width="24" height="25" fill="none" xmlns="http://www.w3.org/2000/svg"><path d="M5.733 24.028a3.488 3.488 0 01-3.483-3.484V4.989a3.488 3.488 0 013.483-3.487H9a.75.75 0 010 1.501H5.733A1.987 1.987 0 003.75 4.99v13.03h10.5v-3.004a.75.75 0 111.5 0v5.525a3.488 3.488 0 01-3.482 3.486H5.733zM3.75 20.542c0 1.094.89 1.984 1.982 1.984h6.535c1.093 0 1.983-.89 1.983-1.984v-1.02H3.75v1.02z" fill="#1B314B"/><path d="M10.5 9.763a.75.75 0 010-1.502.75.75 0 00.75-.75V4.506a4.508 4.508 0 014.5-4.505c2.481 0 4.5 2.021 4.5 4.505V7.51a.75.75 0 00.75.751.75.75 0 010 1.502H10.5zm8.378-1.502a2.23 2.23 0 01-.128-.75V4.506a3.005 3.005 0 00-3-3.004c-1.654 0-3 1.348-3 3.004V7.51c0 .26-.043.513-.128.751h6.256zm-3.128 4.505a1.124 1.124 0 11-.058-2.249h.004l.026-.002h-.019a1.127 1.127 0 01.047 2.25z" fill="#1B314B"/></svg>
